X:1
T:Title
%%score { 1 | 2 }
L:1/8
M:4/4
K:G
V:1 treble nm="Grand Piano"
V:2 treble 
V:1
 z4 z2[Q:1/4=100] GA | B2 _B=B c>c dc | B2 D4 DB | [FA]2 DB A2 DA | [B,G]6 GA | %5
 B2 _B[G=B] [Gc]2 [Gd][Ge] | [Gd]2 [DB]4 [B,D][DB] | [CA]2 [Fc][FA] F2 DA |[M:3/4] [B,G]6 |] %9
V:2
 z4 z2 [G,B,D][G,CD] | [G,DG]2 [G,^CG][G,DG] [G,EG]>[G,EG] [G,EG][G,^DG] | %2
 [G,DG]2 [G,B,]4 [G,B,][G,DG] | [D,D]2 [D,C][D,G,D] [D,F,C]2 [D,F,C][D,F,C] | %4
 [G,,G,]6[K:treble] [G,B,D][G,CD] | [G,DG]2 [G,^CG][K:bass][=F,D] [E,C]2 [D,B,][C,C] | %6
 [G,,B,]2 [G,,G,]4 [G,,G,][G,,G,] | [D,F,]2 [D,D][D,C] [D,A,C]2 [D,F,C][D,F,C] |[M:3/4] [G,,G,]6 |] %9

